src/pos-icons/bell-plus-outline.svg

<svg height="24" viewBox="0 0 24 24" width="24" xmlns="http://www.w3.org/2000/svg"><path d="m12 2c-1.1 0-2 .9-2 2v.29c-2.88.85-5 3.53-5 6.71v6l-2 2v1h9.35c-.23-.64-.35-1.32-.35-2h-5v-7c0-2.76 2.24-5 5-5s5 2.24 5 5v1.09c.33-.06.67-.09 1-.09.34 0 .67.03 1 .09v-1.09c0-3.18-2.12-5.86-5-6.71 0-.1 0-.19 0-.29 0-1.1-.89-2-2-2m5 12v3h-3v2h3v3h2v-3h3v-2h-3v-3m-9 7c0 1.11.9 2 2 2 .66 0 1.28-.33 1.65-.87-.32-.34-.6-.72-.84-1.13z"/></svg>

<?xml version="1.0" encoding="UTF-8"?><!DOCTYPE svg PUBLIC "-//W3C//DTD SVG 1.1//EN" "http://www.w3.org/Graphics/SVG/1.1/DTD/svg11.dtd"><svg xmlns="http://www.w3.org/2000/svg" xmlns:xlink="http://www.w3.org/1999/xlink" version="1.1" id="mdi-bell-plus-outline" width="24" height="24" viewBox="0 0 24 24"><path d="M12 2C10.9 2 10 2.9 10 4C10 4.1 10 4.19 10 4.29C7.12 5.14 5 7.82 5 11V17L3 19V20H12.35C12.12 19.36 12 18.68 12 18H7V11C7 8.24 9.24 6 12 6C14.76 6 17 8.24 17 11V12.09C17.33 12.03 17.67 12 18 12C18.34 12 18.67 12.03 19 12.09V11C19 7.82 16.88 5.14 14 4.29C14 4.19 14 4.1 14 4C14 2.9 13.11 2 12 2M17 14V17H14V19H17V22H19V19H22V17H19V14M10 21C10 22.11 10.9 23 12 23C12.66 23 13.28 22.67 13.65 22.13C13.33 21.79 13.05 21.41 12.81 21Z" /></svg>
